assets/img/ico-book.svg

<?xml version="1.0" encoding="UTF-8"?>
<svg width="14px" height="16px" viewBox="0 0 14 16" version="1.1" xmlns="http://www.w3.org/2000/svg" xmlns:xlink="http://www.w3.org/1999/xlink">
    <!-- Generator: Sketch 50.2 (55047) - http://www.bohemiancoding.com/sketch -->
    <title>Shape</title>
    <desc>Created with Sketch.</desc>
    <defs></defs>
    <g id="Design-v1" stroke="none" stroke-width="1" fill="none" fill-rule="evenodd">
        <g id="1.0.0-Homepage" transform="translate(-492.000000, -2547.000000)" fill="#FE9E3C" fill-rule="nonzero">
            <g id="Training-Tracks-Section" transform="translate(-529.000000, 2187.000000)">
                <g id="content" transform="translate(855.000000, 233.000000)">
                    <g id="agile-track" transform="translate(0.000000, 40.000000)">
                        <g id="details" transform="translate(44.000000, 87.000000)">
                            <g id="Stacked-Group-Copy-2" transform="translate(122.000000, 0.000000)">
                                <g id="book">
                                    <path d="M14,11.1029165 L14,0.740194435 C14,0.330003352 13.665625,0 13.25,0 L3,0 C1.34375,0 0,1.3261817 0,2.96077774 L0,12.8300369 C0,14.4646329 1.34375,15.7908146 3,15.7908146 L13.25,15.7908146 C13.665625,15.7908146 14,15.4608113 14,15.0506202 L14,14.5571572 C14,14.3258465 13.890625,14.1161247 13.721875,13.9804224 C13.590625,13.5054643 13.590625,12.1515253 13.721875,11.6765672 C13.890625,11.543949 14,11.3342273 14,11.1029165 Z M4,4.13275226 C4,4.03097553 4.084375,3.94770365 4.1875,3.94770365 L10.8125,3.94770365 C10.915625,3.94770365 11,4.03097553 11,4.13275226 L11,4.74958096 C11,4.85135769 10.915625,4.93462957 10.8125,4.93462957 L4.1875,4.93462957 C4.084375,4.93462957 4,4.85135769 4,4.74958096 L4,4.13275226 Z M4,6.10660409 C4,6.00482736 4.084375,5.92155548 4.1875,5.92155548 L10.8125,5.92155548 C10.915625,5.92155548 11,6.00482736 11,6.10660409 L11,6.72343279 C11,6.82520952 10.915625,6.90848139 10.8125,6.90848139 L4.1875,6.90848139 C4.084375,6.90848139 4,6.82520952 4,6.72343279 L4,6.10660409 Z M11.91875,13.8169628 L3,13.8169628 C2.446875,13.8169628 2,13.3759303 2,12.8300369 C2,12.2872276 2.45,11.843111 3,11.843111 L11.91875,11.843111 C11.859375,12.3704995 11.859375,13.2895743 11.91875,13.8169628 Z" id="Shape"></path>
                                </g>
                            </g>
                        </g>
                    </g>
                </g>
            </g>
        </g>
    </g>
</svg>

<svg width="14" height="16" viewBox="0 0 14 16" xmlns="http://www.w3.org/2000/svg"><title>Shape</title><path d="M14 11.103V.74c0-.41-.334-.74-.75-.74H3C1.344 0 0 1.326 0 2.96v9.87c0 1.635 1.344 2.96 3 2.96h10.25c.416 0 .75-.33.75-.74v-.493a.742.742 0 0 0-.278-.577c-.131-.475-.131-1.828 0-2.303a.731.731 0 0 0 .278-.574zM4 4.133c0-.102.084-.185.188-.185h6.625c.103 0 .187.083.187.185v.617a.187.187 0 0 1-.188.185H4.189A.187.187 0 0 1 4 4.75v-.617zm0 1.974c0-.102.084-.185.188-.185h6.625c.103 0 .187.083.187.185v.616a.187.187 0 0 1-.188.185H4.189A.187.187 0 0 1 4 6.723v-.616zm7.919 7.71H3c-.553 0-1-.441-1-.987 0-.543.45-.987 1-.987h8.919c-.06.527-.06 1.447 0 1.974z" fill="#FE9E3C" fill-rule="nonzero"/></svg>
